src/assets/skill-language.svg

<svg xmlns="http://www.w3.org/2000/svg" width="40" height="42" viewBox="0 0 40 42">
  <g fill="#030226">
    <path d="M1.5008,13.4577311 L4.3,15.6757075 C4.54017546,15.8661878 4.86934657,15.9033538 5.1466357,15.7712994 C5.42392484,15.639245 5.60019242,15.3613721 5.6,15.0566038 L5.6,12.6792453 L8.9999916,12.6792453 C8.99,12.6937075 8.9774,12.7072783 8.9671,12.7218396 C6.54126723,16.0576396 5.7844614,20.3075267 6.91168164,24.2641609 C8.03890188,28.220795 10.926962,31.4517827 14.7554,33.0392406 C14.7765,33.0477594 14.7983,33.0554858 14.8202,33.0624198 C16.463126,33.7329867 18.2230733,34.0771926 19.9999916,34.0754717 C20.8046794,34.0746715 21.6077439,34.004105 22.4,33.8645802 L22.4,38.8301887 C22.4017639,40.5801029 23.83342,41.9982527 25.6,42 L36.8,42 C38.56658,41.9982527 39.9982361,40.5801029 40.0000084,38.8301887 L40.0000084,31.6369953 C40.0024938,30.4326537 39.4498444,29.2930624 38.4992,28.5422689 L35.7,26.3242925 C35.4598245,26.1338122 35.1306534,26.0966462 34.8533643,26.2287006 C34.5760752,26.360755 34.3998076,26.6386279 34.4,26.9433962 L34.4,29.3207547 L30.35,29.3207547 C30.5725,29.0619198 30.7972,28.8045708 30.9991,28.5306792 C31.0022,28.526717 31.0055,28.5231509 31.0091,28.5190896 C31.0127,28.5150283 31.0148,28.5124528 31.0174,28.509184 C34.0149158,24.408344 34.4388169,18.9891764 32.114807,14.4798901 C29.7907972,9.97060378 25.1111483,7.1323256 19.9999916,7.13207547 C19.1953206,7.1328757 18.3922561,7.20344215 17.6,7.34296698 L17.6,3.16981132 C17.5982361,1.41989713 16.16658,0.00174729455 14.4,0 L3.2,0 C1.43341996,0.00174729455 0.00176393545,1.41989713 -8.40356525e-06,3.16981132 L-8.40356525e-06,10.3630047 C-0.00249377703,11.5673463 0.550155621,12.7069376 1.5008,13.4577311 Z M35.2,30.9056604 C35.6418278,30.9056604 36,30.5508672 36,30.1132075 L36,28.5917972 L37.4992,29.779684 C38.0699001,30.2301521 38.401642,30.9141528 38.4000061,31.6369953 L38.4000061,38.8301887 C38.3988431,39.7050328 37.683176,40.4139484 36.8,40.4150943 L25.6,40.4150943 C24.716824,40.4139484 24.0011569,39.7050328 24,38.8301887 L24,32.490566 C24.0011569,31.6157219 24.716824,30.9068064 25.6,30.9056604 L35.2,30.9056604 Z M26.6275,29.3207547 C26.7576333,28.8554528 26.8764,28.3894906 26.9838,27.9228679 C27.6546,28.0755472 28.3266667,28.2533538 29,28.4562877 C28.7308,28.7589057 28.444,29.0454764 28.145,29.3207547 L26.6275,29.3207547 Z M30.0338,27.1135755 C29.1232667,26.8230094 28.2140333,26.5753679 27.3061,26.3706509 C27.6073721,24.7282199 27.7791905,23.0650602 27.82,21.3962264 L31.97,21.3962264 C31.8356646,23.4360099 31.1684556,25.4061923 30.0338,27.1135755 L30.0338,27.1135755 Z M30.0483,14.1159623 C31.1750376,15.8179163 31.8368539,17.7802659 31.9691,19.8113208 L27.82,19.8113208 C27.7793289,18.1485142 27.6079774,16.4913711 27.3075,14.8549245 C28.2317,14.647434 29.1453,14.4009811 30.0483,14.115566 L30.0483,14.1159623 Z M29.0206,12.7704764 C28.3494667,12.9701085 27.6722333,13.1471557 26.9889,13.3016179 C26.7673667,12.3348255 26.4964333,11.3727547 26.1761,10.4154057 C27.242361,11.0488102 28.202113,11.8434257 29.0206,12.7704764 L29.0206,12.7704764 Z M20.8,8.74808491 C21.9367337,8.82391908 23.056674,9.0604176 24.1258,9.45039623 C24.6609776,10.8072953 25.0941907,12.2015167 25.4219,13.6216698 C23.8950507,13.889441 22.3500925,14.0435091 20.8,14.0825802 L20.8,8.74808491 Z M20.8,15.6702594 C22.4569788,15.6297358 24.1084291,15.4641618 25.74,15.1749764 C26.019467,16.7058235 26.179938,18.2556557 26.22,19.8108255 L20.8,19.8108255 L20.8,15.6702594 Z M20.8,21.3962264 L26.22,21.3962264 C26.180043,22.9560289 26.019574,24.5105111 25.74,26.0460425 C24.1087227,25.7531011 22.4572676,25.5838178 20.8,25.5396651 L20.8,21.3962264 Z M20.8,27.1247689 C22.3489731,27.1684247 23.8924795,27.3267958 25.4176,27.5985566 C25.2783333,28.1986415 25.1208,28.7953255 24.945,29.3886085 C23.5596748,29.6812987 22.5341924,30.8424525 22.4255,32.2414387 C21.8892886,32.3496646 21.346157,32.4209908 20.8,32.4549057 L20.8,27.1247689 Z M9.9512,14.1167547 C10.814,14.3908113 11.6751,14.6256085 12.5345,14.8211462 C12.232341,16.4687654 12.0603198,18.1372123 12.02,19.8113208 L8.0309,19.8113208 C8.16353865,17.780663 8.82514224,15.8187063 9.9512,14.1167547 Z M10.9769,12.7718632 C11.0045667,12.7409575 11.0325,12.7100849 11.0607,12.6792453 L12.9924,12.6792453 C12.9424,12.8773585 12.8973,13.0715094 12.8518,13.2677406 C12.2282,13.1240425 11.6032333,12.95875 10.9769,12.7718632 Z M9.9384,27.0682075 C8.8204227,25.3716381 8.16337011,23.4179843 8.0308,21.3962264 L12.0208,21.3962264 C12.0615081,23.0644713 12.233294,24.7270437 12.5346,26.3688679 C11.6738667,26.5640094 10.8084667,26.7971226 9.9384,27.0682075 Z M10.9643,28.4162689 C11.5972333,28.2301085 12.2269333,28.0656085 12.8534,27.9227689 C13.0672,28.8498066 13.3228667,29.7650566 13.6204,30.6685189 C12.6290873,30.0498282 11.7342824,29.291075 10.9643,28.4162689 L10.9643,28.4162689 Z M19.2,32.4579764 C17.9950216,32.3752229 16.8092257,32.1150147 15.6817,31.6859292 C15.1619047,30.355737 14.7400348,28.9900051 14.4194,27.5994481 C15.9975259,27.3136946 17.5961039,27.1527812 19.2,27.1182311 L19.2,32.4579764 Z M19.2,25.5378821 C17.4896656,25.5774166 15.7849658,25.7477057 14.1011,26.0472311 C13.8208496,24.5113711 13.6600106,22.9564702 13.62,21.3962264 L19.2,21.3962264 L19.2,25.5378821 Z M19.2,19.8113208 L13.62,19.8113208 C13.6592787,18.2467839 13.8197502,16.6875424 14.1,15.1473396 C15.7834933,15.4540232 17.4887779,15.6287392 19.2,15.6698632 L19.2,19.8113208 Z M17.6,9.50943396 L17.6,8.96066038 C18.127952,8.85533063 18.6625148,8.78563259 19.2,8.75204717 L19.2,14.0826792 C17.5955024,14.0428629 15.996555,13.8795883 14.4176,13.5943302 C14.4909333,13.2817736 14.5699,12.9680943 14.6545,12.6532925 C16.3132205,12.5254601 17.5949047,11.1574636 17.6,9.50943396 Z M1.59999393,3.16981132 C1.60115689,2.29496721 2.31682404,1.58605164 3.2,1.58490566 L14.4,1.58490566 C15.283176,1.58605164 15.9988431,2.29496721 16,3.16981132 L16,9.50943396 C15.9988431,10.3842781 15.283176,11.0931936 14.4,11.0943396 L4.8,11.0943396 C4.3581722,11.0943396 4,11.4491328 4,11.8867925 L4,13.4082028 L2.5008,12.220316 C1.9300999,11.7698479 1.59835804,11.0858472 1.59999393,10.3630047 L1.59999393,3.16981132 Z"/>
    <ellipse cx="8.8" cy="5.943" rx="1.2" ry="1.189"/>
    <ellipse cx="13.2" cy="5.943" rx="1.2" ry="1.189"/>
    <ellipse cx="4.4" cy="5.943" rx="1.2" ry="1.189"/>
    <ellipse cx="31.2" cy="36.057" rx="1.2" ry="1.189"/>
    <ellipse cx="35.6" cy="36.057" rx="1.2" ry="1.189"/>
    <ellipse cx="26.8" cy="36.057" rx="1.2" ry="1.189"/>
  </g>
</svg>

<svg xmlns="http://www.w3.org/2000/svg" width="40" height="42"><g fill="#030226"><path d="M1.5 13.458l2.8 2.218c.24.19.57.227.847.095a.792.792 0 00.453-.714v-2.378H9c-.01.015-.023.028-.033.043a13.379 13.379 0 00-2.055 11.542 13.526 13.526 0 007.843 8.775.897.897 0 00.065.023A13.674 13.674 0 0020 34.075c.805 0 1.608-.07 2.4-.21v4.965c.002 1.75 1.433 3.168 3.2 3.17h11.2c1.767-.002 3.198-1.42 3.2-3.17v-7.193a3.934 3.934 0 00-1.5-3.095l-2.8-2.218a.806.806 0 00-.847-.095.792.792 0 00-.453.714v2.378h-4.05c.223-.26.447-.516.65-.79.002-.004.006-.008.01-.012a13.368 13.368 0 001.106-14.04C29.79 9.972 25.11 7.133 19.999 7.133c-.805 0-1.608.071-2.4.211V3.17C17.598 1.42 16.167.002 14.4 0H3.2C1.433.002.002 1.42 0 3.17v7.193a3.934 3.934 0 001.5 3.095zm33.7 17.448c.442 0 .8-.355.8-.793v-1.521l1.5 1.188c.57.45.902 1.134.9 1.857v7.193a1.595 1.595 0 01-1.6 1.585H25.6A1.595 1.595 0 0124 38.83v-6.34a1.595 1.595 0 011.6-1.584h9.6zm-8.573-1.585c.13-.466.25-.932.357-1.398.67.153 1.343.33 2.016.533-.27.303-.556.59-.855.865h-1.517zm3.407-2.207c-.91-.291-1.82-.539-2.728-.743.301-1.643.473-3.306.514-4.975h4.15a11.72 11.72 0 01-1.936 5.718zm.014-12.998a11.692 11.692 0 011.921 5.695H27.82a31.741 31.741 0 00-.512-4.956 33.278 33.278 0 002.74-.74v.001zm-1.027-1.346c-.672.2-1.349.377-2.032.532a30.705 30.705 0 00-.813-2.887 11.904 11.904 0 012.845 2.355zM20.8 8.748c1.137.076 2.257.312 3.326.702a29.363 29.363 0 011.296 4.172 31.327 31.327 0 01-4.622.46V8.749zm0 6.922a32.918 32.918 0 004.94-.495c.28 1.53.44 3.08.48 4.636H20.8v-4.14zm0 5.726h5.42c-.04 1.56-.2 3.115-.48 4.65a32.908 32.908 0 00-4.94-.506v-4.144zm0 5.729c1.549.043 3.092.202 4.618.474-.14.6-.297 1.196-.473 1.79a3.175 3.175 0 00-2.52 2.852c-.536.109-1.079.18-1.625.214v-5.33zM9.951 14.117c.863.274 1.724.509 2.583.704a31.925 31.925 0 00-.514 4.99H8.03c.134-2.03.795-3.992 1.921-5.694zm1.026-1.345l.084-.093h1.931c-.05.198-.095.393-.14.589a30.545 30.545 0 01-1.875-.496zM9.938 27.068a11.698 11.698 0 01-1.907-5.672h3.99c.04 1.668.212 3.331.514 4.973-.861.195-1.727.428-2.597.7zm1.026 1.348c.633-.186 1.263-.35 1.89-.493.213.927.469 1.842.766 2.746a12.006 12.006 0 01-2.656-2.253zm8.236 4.042a12.253 12.253 0 01-3.518-.772 29.34 29.34 0 01-1.263-4.087 30.521 30.521 0 014.781-.48v5.339zm0-6.92c-1.71.04-3.415.21-5.099.51a30.226 30.226 0 01-.481-4.652h5.58v4.142zm0-5.727h-5.58a30.3 30.3 0 01.48-4.664c1.683.307 3.389.482 5.1.523v4.141zM17.6 9.51v-.548a12.004 12.004 0 011.6-.209v5.33a31.263 31.263 0 01-4.782-.488c.073-.312.152-.626.237-.94 1.658-.129 2.94-1.497 2.945-3.145zm-16-6.34a1.595 1.595 0 011.6-1.584h11.2c.883.001 1.599.71 1.6 1.585v6.34a1.595 1.595 0 01-1.6 1.584H4.8c-.442 0-.8.355-.8.793v1.521L2.5 12.22a2.36 2.36 0 01-.9-1.857V3.17z"/><ellipse cx="8.8" cy="5.943" rx="1.2" ry="1.189"/><ellipse cx="13.2" cy="5.943" rx="1.2" ry="1.189"/><ellipse cx="4.4" cy="5.943" rx="1.2" ry="1.189"/><ellipse cx="31.2" cy="36.057" rx="1.2" ry="1.189"/><ellipse cx="35.6" cy="36.057" rx="1.2" ry="1.189"/><ellipse cx="26.8" cy="36.057" rx="1.2" ry="1.189"/></g></svg>
